X:1
T:Title
%%score { ( 1 4 ) | ( 2 3 ) }
L:1/8
M:4/4
K:Bb
V:1 treble nm="Grand Piano"
V:4 treble 
V:2 bass 
V:3 bass 
V:1
 z4 z2[Q:1/4=84] [DF]>[CE] | [B,D][DF][DB][FA] [B,EG]<[B,DF][K:bass] [F,CE][F,B,D] | %2
[M:3/4] [F,A,F][F,A,F] [F,A,F]>[F,B,=E] [F,C_E]2 |[M:1/4] [F,A,C][F,A,D] | %4
[M:4/4] [F,A,E][K:treble][F,DF][EG][EA] dcAF |[M:17/16] [EG][EG][EG][EB]>[DF]-[DF]3/2[DF]>[CE] | %6
[M:4/4] [B,D][DF][DB][FA] [B,EG]<[B,DF] DF | B[AB] [GB]>[^FB] [=Fd]3 [^Fe] | d2 (3Bcd c c3 | %9
[M:3/4] [B,DB]6 |[M:1/4] FF |[M:4/4] [FB][FB][Fc][Fc] [Fd][Fd]GG | %12
[M:3/4] [Gc][Gc] [Gd][Gd] [Ge][Ge] |[M:1/4] [Ac][Ac] | %14
[M:17/16] [Ff][Ff][Fe][Fe][Fd]d>[B=e]-[Be]3/2 | %15
[M:4/4] [Bf]2 (3B-[ABc][Bd] [FAc] [EAc]3[Q:1/4=81][Q:1/4=79][Q:1/4=76][Q:1/4=74][Q:1/4=71][Q:1/4=68][Q:1/4=66] | %16
[M:3/4] [DFB]6 |] %17
V:2
 z4 z2 [B,,F,]2 | z2 z .G, z4 |[M:3/4] F,,F,, F,,>G,, A,,2 |[M:1/4] E,D, | %4
[M:4/4] C,B,,[A,,F,][F,,F,] [F,A,E][F,A,E][F,CE][F,A,E] | %5
[M:17/16] [B,,B,][B,,B,][B,,B,][B,,G,]>[B,,B,]-[B,,B,]3/2[B,,F,]>[B,,F,] |[M:4/4] z2 z .G, z4 | %7
 [G,B,D][F,D] [E,E]>[E,B,] [B,,B,]3 [E,B,] | [F,B,F]2 (3D[K:treble]EF[K:bass] [F,G,E] [F,A,E]3 | %9
[M:3/4] B,,6 |[M:1/4] F,[E,F,] |[M:4/4] [D,B,][D,B,][C,A,][C,A,] [B,,B,][B,,B,]G,[F,G,] | %12
[M:3/4] [E,C][E,C] [D,=B,][D,B,] [C,C][C,C] |[M:1/4] [F,C][F,C] | %14
[M:17/16] [D,B,][D,B,][C,A,][C,A,][B,,B,][K:treble][B,F]>[G,_D]-[G,D]3/2 | %15
[M:4/4][K:bass] [F,C]2 (3DCB, F, F,3 |[M:3/4] B,,6 |] %17
V:3
 x8 | [B,,F,][B,,F,] [B,,F,]B,,/-[B,,A,]/ B,,<B,, B,,B,, |[M:3/4] x6 |[M:1/4] x2 |[M:4/4] x8 | %5
[M:17/16] x17/2 |[M:4/4] [B,,F,][B,,F,] [B,,F,]B,,/-[B,,A,]/ B,,<B,, B,[A,C] | x8 | %8
 z2 F,2[K:treble][K:bass] z4 |[M:3/4] x6 |[M:1/4] x2 |[M:4/4] x8 |[M:3/4] x6 |[M:1/4] x2 | %14
[M:17/16] x5[K:treble] x7/2 |[M:4/4][K:bass] x8 |[M:3/4] x6 |] %17
V:4
 x8 | x6[K:bass] x2 |[M:3/4] x6 |[M:1/4] x2 |[M:4/4] x[K:treble] x7 |[M:17/16] x17/2 |[M:4/4] x8 | %7
 x8 | x8 |[M:3/4] x6 |[M:1/4] x2 |[M:4/4] x8 |[M:3/4] x6 |[M:1/4] x2 |[M:17/16] x17/2 | %15
[M:4/4] z2 F2 z4 |[M:3/4] x6 |] %17

